src/cards/hearts_10.svg

<svg version="1.1" id="Layer_1" xmlns="http://www.w3.org/2000/svg" xmlns:xlink="http://www.w3.org/1999/xlink" x="0px" y="0px"
	 width="100%" viewBox="0 0 336 496" enable-background="new 0 0 336 496" xml:space="preserve">
<path fill="currentColor" opacity="1.000000" stroke="none" 
	d="
M1.000000,21.428463 
	C4.347405,21.008610 6.878682,18.984703 9.683330,17.589470 
	C14.127484,15.378631 16.274380,16.638628 16.317579,21.502182 
	C16.394188,30.127197 16.467655,38.755886 16.287464,47.377708 
	C16.217333,50.733437 17.204260,52.774601 20.651638,53.376675 
	C22.131981,53.635212 23.725023,54.046913 23.565145,56.075485 
	C23.374901,58.489365 21.443750,58.273079 19.827295,58.278576 
	C13.856823,58.298889 7.886106,58.247002 1.457740,58.111130 
	C1.000000,56.611111 1.000000,55.222221 1.416932,53.424095 
	C6.248263,53.339836 8.113674,51.505646 7.762041,46.901772 
	C7.410581,42.300156 7.685432,37.650848 7.682162,33.022449 
	C7.677240,26.056398 7.675921,26.056398 1.000000,27.000000 
	C1.000000,25.285643 1.000000,23.571283 1.000000,21.428463 
z"/>
<path fill="currentColor" opacity="1.000000" stroke="none" 
	d="
M337.000000,484.562500 
	C334.270325,485.378448 332.179993,487.149078 329.801239,488.294312 
	C325.800049,490.220673 323.745209,489.084412 323.691437,484.681519 
	C323.583923,475.878784 323.582031,467.073120 323.683350,458.270325 
	C323.721741,454.935638 323.376343,452.295532 319.139374,452.152405 
	C317.383484,452.093079 315.790619,451.178619 316.100220,449.024170 
	C316.382294,447.061249 318.155609,447.063293 319.618805,447.045135 
	C325.099487,446.976990 330.581390,447.004059 336.531433,446.997742 
	C337.000000,448.714355 337.000000,450.428711 336.687378,452.465149 
	C333.874176,452.227539 332.435608,453.285400 332.405304,455.783661 
	C332.326996,462.239532 332.320923,468.698517 332.437836,475.153534 
	C332.492676,478.181061 333.995728,479.429047 337.000000,478.000000 
	C337.000000,480.041656 337.000000,482.083344 337.000000,484.562500 
z"/>
<path fill="currentColor" opacity="1.000000" stroke="none" 
	d="
M204.761688,430.495850 
	C203.465851,420.268951 207.381256,412.482788 214.276108,405.972260 
	C218.632843,401.858337 223.073792,397.810516 227.722641,394.035583 
	C232.244919,390.363403 236.086472,386.082489 239.957809,380.843384 
	C247.968750,392.287811 259.811615,398.789673 268.465057,408.691986 
	C274.473541,415.567535 277.076874,423.505127 274.800751,432.293243 
	C271.440125,445.268585 254.818314,450.134247 243.967758,441.679718 
	C242.676361,440.673492 241.466614,439.562531 240.279419,438.551544 
	C222.483719,449.891235 210.413467,447.234039 204.761688,430.495850 
z"/>
<path fill="currentColor" opacity="1.000000" stroke="none" 
	d="
M66.473610,306.842285 
	C69.449791,300.228119 74.323257,295.677124 79.269310,291.185425 
	C86.150772,284.936066 94.025154,279.747040 99.361626,271.830933 
	C102.933533,273.105743 103.991165,276.427032 106.199638,278.551239 
	C112.928017,285.022949 120.727455,290.280182 127.056259,297.196167 
	C132.159134,302.772430 135.595657,308.840851 135.451050,316.814880 
	C135.308441,324.679443 131.984009,330.239166 125.161598,333.695923 
	C117.978455,337.335449 110.981552,336.531372 104.418808,331.961670 
	C102.940147,330.932098 101.621193,329.673157 100.060745,328.380676 
	C96.504143,331.019623 93.462547,334.225037 89.086182,335.231415 
	C81.285156,337.025360 74.362511,335.310699 69.101479,329.279083 
	C63.370861,322.709106 63.431053,315.047974 66.473610,306.842285 
z"/>
<path fill="currentColor" opacity="1.000000" stroke="none" 
	d="
M266.435669,296.582275 
	C271.729156,302.156403 275.285828,308.008118 275.439362,315.758118 
	C275.610870,324.416748 272.117615,330.574799 264.354797,334.091675 
	C256.643799,337.585083 249.452332,336.204681 242.988754,330.816315 
	C242.103806,330.078583 241.226456,329.331757 240.475159,328.698364 
	C238.903122,328.634430 238.224747,329.691040 237.373077,330.440247 
	C230.093460,336.843842 220.739899,337.718262 213.007782,332.708099 
	C205.541519,327.870209 202.575775,318.451691 205.524719,309.326050 
	C206.884827,305.117126 209.222565,301.529999 212.074219,298.242188 
	C220.464172,288.569031 232.140167,282.400360 239.954971,271.024414 
	C247.390961,281.617218 258.098541,287.553925 266.435669,296.582275 
z"/>
<path fill="currentColor" opacity="1.000000" stroke="none" 
	d="
M94.145248,388.134033 
	C96.463417,386.218292 97.247398,383.368164 100.338287,381.715881 
	C108.845901,393.365173 122.394531,400.002838 130.824921,411.927002 
	C139.029327,423.531586 136.619751,437.661591 125.600304,443.499573 
	C118.400108,447.314148 109.964348,446.497009 103.623482,441.355286 
	C102.480034,440.428101 101.376167,439.452087 100.085312,438.355255 
	C96.522430,440.990814 93.494362,444.211548 89.130470,445.207642 
	C81.387512,446.975006 74.524963,445.402130 69.140274,439.410858 
	C63.842918,433.516815 63.578053,426.446198 65.589333,419.247162 
	C67.348526,412.950470 71.622940,408.197754 76.331863,403.906464 
	C82.105125,398.645294 88.032494,393.553284 94.145248,388.134033 
z"/>
<path fill="currentColor" opacity="1.000000" stroke="none" 
	d="
M185.724213,339.252991 
	C189.896439,343.109924 194.014404,346.533936 197.651184,350.409454 
	C202.559799,355.640381 205.569702,361.678467 205.450424,369.257751 
	C205.322861,377.363556 201.678253,383.066589 194.741272,386.448517 
	C187.582870,389.938324 180.497635,389.022491 174.091721,384.107483 
	C172.784866,383.104797 171.573044,381.978241 170.089417,380.714600 
	C165.948364,384.150635 161.981842,387.725952 156.348862,388.276855 
	C141.265747,389.751984 130.602585,376.190338 135.556107,361.732361 
	C137.261719,356.754150 140.170258,352.520966 143.811035,348.773682 
	C152.131012,340.210266 162.682404,334.041321 170.044235,323.470276 
	C174.502197,329.946136 179.867310,334.601593 185.724213,339.252991 
z"/>
<path fill="currentColor" opacity="1.000000" stroke="none" 
	d="
M179.384857,171.386139 
	C176.182495,174.738083 173.248871,177.862839 169.842636,181.490982 
	C161.537415,170.006683 148.904282,163.383072 140.292755,152.515976 
	C135.104401,145.968658 133.039337,138.507141 135.347656,130.503067 
	C139.038376,117.705460 155.171539,112.994446 165.877060,121.272957 
	C167.181519,122.281685 168.392044,123.411858 169.521027,124.378639 
	C171.505905,124.402794 172.262497,122.896408 173.379608,121.981026 
	C180.614197,116.052803 189.882248,115.505577 197.468872,120.598633 
	C204.406677,125.256126 207.293854,134.573532 204.603134,143.281342 
	C202.231644,150.955978 196.787537,156.320145 191.063232,161.454086 
	C187.347504,164.786591 183.462677,167.930527 179.384857,171.386139 
z"/>
<path fill="currentColor" opacity="1.000000" stroke="none" 
	d="
M68.889603,92.934799 
	C66.364136,88.723503 64.766975,84.684494 64.594193,79.986320 
	C64.276321,71.342804 67.827377,65.136307 75.559662,61.512352 
	C83.279732,57.894108 90.457451,59.355873 96.970413,64.639366 
	C97.871834,65.370628 98.698944,66.193489 99.529427,66.945831 
	C101.378937,67.026718 102.140259,65.502884 103.236832,64.600822 
	C110.717262,58.447319 119.983620,57.906410 127.695084,63.250381 
	C134.718597,68.117622 137.505005,77.145683 134.586807,85.982254 
	C132.322174,92.839790 127.656578,97.999596 122.486382,102.817459 
	C115.092232,109.707680 106.173935,114.974266 100.198204,124.505707 
	C91.229500,112.115211 77.634102,105.287003 68.889603,92.934799 
z"/>
<path fill="currentColor" opacity="1.000000" stroke="none" 
	d="
M257.823730,106.847137 
	C251.509171,112.238075 244.845963,116.747467 240.253296,124.402115 
	C231.406494,112.276886 218.068771,105.641617 209.651566,93.972519 
	C199.960480,80.537422 203.961533,65.132530 218.148743,60.455406 
	C225.243011,58.116623 231.002213,59.842762 240.150681,67.177414 
	C244.229141,63.652424 248.450745,60.126392 254.261276,59.711765 
	C261.842407,59.170784 268.137299,61.751148 272.368805,68.070724 
	C276.941864,74.900330 276.482971,82.282120 273.120087,89.461830 
	C269.785553,96.580925 263.768188,101.477478 257.823730,106.847137 
z"/>
<path fill="currentColor" opacity="1.000000" stroke="none" 
	d="
M133.001709,199.684433 
	C128.466461,208.168030 121.300591,213.679504 114.531525,219.562317 
	C109.528702,223.910172 104.029427,227.752487 100.376076,234.584503 
	C91.683990,222.502075 78.691757,216.057175 70.229012,204.874557 
	C66.880310,200.449600 64.685905,195.602402 64.577705,189.758118 
	C64.421898,181.343521 67.730850,175.200546 75.286674,171.665085 
	C83.334770,167.899307 90.812744,169.239090 97.471329,175.116653 
	C98.211685,175.770157 98.929756,176.448929 99.542587,177.010147 
	C101.113914,177.080002 101.785744,175.992218 102.637512,175.259659 
	C110.501183,168.496536 119.929970,167.758926 127.796791,173.320175 
	C135.054962,178.451111 137.590500,188.297745 134.020737,197.532684 
	C133.781586,198.151398 133.459915,198.738205 133.001709,199.684433 
z"/>
<path fill="currentColor" opacity="1.000000" stroke="none" 
	d="
M251.859528,221.880157 
	C247.308884,225.314743 243.626556,229.108673 240.197098,234.255524 
	C236.581406,229.902542 233.259430,225.857941 229.194443,222.564911 
	C223.119263,217.643448 217.030731,212.714676 211.873779,206.792984 
	C207.752335,202.060364 204.898422,196.792831 204.617279,190.262726 
	C204.249344,181.716644 207.444641,175.297119 215.275421,171.671875 
	C223.547592,167.842285 231.128387,169.331848 237.843704,175.432816 
	C238.452621,175.986008 239.058762,176.542252 239.582840,177.020935 
	C241.291687,177.034348 242.034943,175.774490 243.010178,174.940933 
	C250.556061,168.491425 260.108917,167.849533 267.796997,173.313080 
	C275.086121,178.493103 277.766388,188.616745 274.064117,197.525162 
	C270.900330,205.137833 264.993805,210.544907 258.944763,215.801559 
	C256.685486,217.764877 254.399918,219.698013 251.859528,221.880157 
z"/>
<path fill="currentColor" opacity="1.000000" stroke="none" 
	d="
M297.684174,405.719727 
	C301.890320,401.922119 306.189728,398.761475 309.792267,394.220886 
	C315.026031,399.142059 320.524902,403.487396 324.992889,408.713989 
	C331.146179,415.911896 327.965912,426.891205 319.605865,426.686340 
	C313.107635,426.527100 306.778625,426.289337 300.231750,426.810638 
	C294.523346,427.265198 290.631439,420.123322 292.194611,414.339996 
	C293.091034,411.023529 295.031708,408.352448 297.684174,405.719727 
z"/>
<path fill="currentColor" opacity="1.000000" stroke="none" 
	d="
M43.504128,98.419312 
	C39.387096,103.064713 34.087032,105.889587 30.202435,111.237831 
	C25.072687,105.393456 18.405758,101.674347 14.161975,95.432846 
	C10.778931,90.457260 11.055722,85.329330 14.503516,81.637093 
	C17.837372,78.066872 22.466724,77.533096 27.749048,80.293671 
	C29.149422,81.025520 30.159721,81.472565 31.831316,80.652832 
	C38.194939,77.532204 42.541336,78.052048 45.813446,81.960960 
	C49.234467,86.047768 48.982185,91.076187 45.056068,96.640556 
	C44.673866,97.182236 44.192593,97.654022 43.504128,98.419312 
z"/>
<path fill="currentColor" opacity="1.000000" stroke="none" 
	d="
M309.250183,481.991425 
	C304.763916,488.555115 298.676605,490.281494 291.600647,488.866669 
	C284.639252,487.474792 281.392456,482.492218 280.289459,475.918365 
	C279.153015,469.145020 279.009003,462.388428 281.660736,455.851532 
	C284.496429,448.861206 289.654968,446.156036 299.102905,446.693359 
	C304.969330,447.027039 309.783691,450.965332 311.239471,457.405273 
	C313.092865,465.604065 313.486603,473.831757 309.250183,481.991425 
M289.333344,468.373901 
	C289.358246,472.364502 289.886627,476.282776 291.344238,480.010193 
	C292.258301,482.347626 293.962982,483.856232 296.628815,483.772858 
	C299.433533,483.685089 300.768066,481.646393 301.374664,479.367920 
	C303.417572,471.694458 303.229340,463.989716 301.057037,456.352234 
	C300.322601,453.770111 298.716675,451.676605 295.956757,451.611572 
	C292.847046,451.538269 291.372467,454.042480 290.600098,456.668671 
	C289.570618,460.169098 289.084656,463.787231 289.333344,468.373901 
z"/>
<path fill="currentColor" opacity="1.000000" stroke="none" 
	d="
M46.465008,59.003906 
	C35.364948,59.516117 30.254671,55.696770 28.169090,45.282452 
	C27.188229,40.384521 27.154203,35.344707 28.244949,30.439747 
	C30.453905,20.506317 35.705833,16.289738 45.249950,16.485645 
	C53.621929,16.657494 58.385571,21.073048 59.976524,30.964279 
	C60.871983,36.531483 60.829166,42.228619 59.048347,47.730209 
	C57.102142,53.742741 53.226555,57.679825 46.465008,59.003906 
M37.377823,32.036263 
	C37.367268,34.694332 37.336128,37.352520 37.351345,40.010441 
	C37.370491,43.354507 37.951092,46.619438 39.188538,49.715031 
	C40.093357,51.978516 41.579350,53.714752 44.344868,53.700451 
	C47.205544,53.685658 48.606167,51.693176 49.233860,49.441776 
	C51.469120,41.424335 51.321308,33.369915 48.754223,25.428867 
	C47.972347,23.010218 46.168892,21.497099 43.564980,21.477217 
	C41.033718,21.457891 39.714905,23.307898 38.939476,25.400278 
	C38.252407,27.254242 37.919006,29.239281 37.377823,32.036263 
z"/>
</svg>

<svg xmlns="http://www.w3.org/2000/svg" viewBox="0 0 336 496" xml:space="preserve"><path fill="currentColor" d="M1 21.428c3.347-.42 5.879-2.443 8.683-3.839 4.444-2.21 6.591-.95 6.635 3.913.076 8.625.15 17.254-.03 25.876-.07 3.355.916 5.397 4.364 5.999 1.48.258 3.073.67 2.913 2.698-.19 2.414-2.121 2.198-3.738 2.204-5.97.02-11.94-.032-18.37-.168-.457-1.5-.457-2.889-.04-4.687 4.831-.084 6.697-1.918 6.345-6.522-.351-4.602-.077-9.251-.08-13.88C7.677 26.056 7.676 26.056 1 27v-5.572zM337 484.563c-2.73.815-4.82 2.586-7.199 3.731-4.001 1.927-6.056.79-6.11-3.612a1113.45 1113.45 0 0 1-.008-26.412c.039-3.334-.307-5.974-4.544-6.118-1.756-.059-3.348-.973-3.039-3.128.282-1.963 2.056-1.96 3.519-1.979 5.48-.068 10.962-.04 16.912-.047.469 1.716.469 3.43.156 5.467-2.813-.237-4.251.82-4.282 3.319a640.662 640.662 0 0 0 .033 19.37c.055 3.027 1.558 4.275 4.562 2.846v6.563zM204.762 430.496c-1.296-10.227 2.62-18.013 9.514-24.524 4.357-4.114 8.798-8.161 13.447-11.936 4.522-3.673 8.363-7.954 12.235-13.193 8.01 11.445 19.854 17.947 28.507 27.849 6.009 6.876 8.612 14.813 6.336 23.601-3.36 12.976-19.983 17.841-30.833 9.387-1.292-1.007-2.501-2.117-3.689-3.128-17.795 11.34-29.866 8.682-35.517-8.056zM66.474 306.842c2.976-6.614 7.85-11.165 12.795-15.657 6.882-6.249 14.756-11.438 20.093-19.354 3.572 1.275 4.63 4.596 6.838 6.72 6.728 6.472 14.527 11.73 20.856 18.645 5.103 5.576 8.54 11.645 8.395 19.619-.143 7.864-3.467 13.424-10.29 16.88-7.183 3.64-14.18 2.836-20.742-1.733-1.479-1.03-2.798-2.289-4.358-3.581-3.557 2.639-6.598 5.844-10.975 6.85-7.8 1.794-14.723.08-19.985-5.952-5.73-6.57-5.67-14.231-2.627-22.437zM266.436 296.582c5.293 5.574 8.85 11.426 9.003 19.176.172 8.659-3.321 14.817-11.084 18.334-7.711 3.493-14.903 2.113-21.366-3.276-.885-.737-1.763-1.484-2.514-2.118-1.572-.064-2.25.993-3.102 1.742-7.28 6.404-16.633 7.278-24.365 2.268-7.466-4.838-10.432-14.256-7.483-23.382 1.36-4.209 3.698-7.796 6.55-11.084 8.39-9.673 20.065-15.842 27.88-27.218 7.436 10.593 18.144 16.53 26.48 25.558zM94.145 388.134c2.318-1.916 3.102-4.766 6.193-6.418 8.508 11.65 22.057 18.287 30.487 30.211 8.204 11.605 5.795 25.735-5.225 31.573-7.2 3.814-15.636 2.997-21.977-2.145-1.143-.927-2.247-1.903-3.538-3-3.563 2.636-6.59 5.857-10.955 6.853-7.742 1.767-14.605.194-19.99-5.797-5.297-5.894-5.562-12.965-3.55-20.164 1.759-6.297 6.033-11.05 10.742-15.34 5.773-5.262 11.7-10.354 17.813-15.773zM185.724 339.253c4.172 3.857 8.29 7.28 11.927 11.156 4.909 5.231 7.919 11.27 7.8 18.849-.128 8.106-3.773 13.809-10.71 17.19-7.158 3.49-14.243 2.574-20.65-2.34-1.306-1.003-2.518-2.13-4.002-3.393-4.14 3.436-8.107 7.011-13.74 7.562-15.083 1.475-25.746-12.087-20.793-26.545 1.706-4.978 4.614-9.211 8.255-12.958 8.32-8.564 18.871-14.733 26.233-25.304 4.458 6.476 9.823 11.132 15.68 15.783zM179.385 171.386c-3.203 3.352-6.136 6.477-9.542 10.105-8.306-11.484-20.939-18.108-29.55-28.975-5.189-6.547-7.254-14.009-4.945-22.013 3.69-12.798 19.824-17.509 30.53-9.23 1.304 1.009 2.514 2.139 3.643 3.106 1.985.024 2.741-1.483 3.859-2.398 7.234-5.928 16.502-6.475 24.089-1.382 6.938 4.657 9.825 13.975 7.134 22.682-2.371 7.675-7.815 13.04-13.54 18.173-3.715 3.333-7.6 6.477-11.678 9.932zM68.89 92.935c-2.526-4.211-4.123-8.25-4.296-12.949-.318-8.643 3.233-14.85 10.966-18.474 7.72-3.618 14.897-2.156 21.41 3.127.902.732 1.729 1.554 2.56 2.307 1.849.08 2.61-1.443 3.707-2.345 7.48-6.154 16.747-6.695 24.458-1.35 7.024 4.867 9.81 13.895 6.892 22.731-2.265 6.858-6.93 12.018-12.1 16.835-7.395 6.89-16.313 12.157-22.289 21.689-8.968-12.39-22.564-19.219-31.308-31.571zM257.824 106.847c-6.315 5.391-12.978 9.9-17.57 17.555-8.848-12.125-22.185-18.76-30.602-30.43-9.692-13.435-5.69-28.84 8.497-33.517 7.094-2.338 12.853-.612 22.002 6.722 4.078-3.525 8.3-7.05 14.11-7.465 7.581-.541 13.876 2.04 18.108 8.359 4.573 6.83 4.114 14.211.751 21.39-3.334 7.12-9.352 12.016-15.296 17.386zM133.002 199.684c-4.536 8.484-11.701 13.996-18.47 19.878-5.003 4.348-10.503 8.19-14.156 15.023-8.692-12.083-21.684-18.528-30.147-29.71-3.349-4.425-5.543-9.273-5.651-15.117-.156-8.414 3.153-14.557 10.709-18.093 8.048-3.766 15.526-2.426 22.184 3.452.74.653 1.459 1.332 2.072 1.893 1.57.07 2.243-1.018 3.095-1.75 7.863-6.763 17.292-7.501 25.159-1.94 7.258 5.131 9.793 14.978 6.224 24.213-.24.618-.561 1.205-1.02 2.151zM251.86 221.88c-4.551 3.435-8.233 7.229-11.663 12.376-3.616-4.353-6.938-8.398-11.003-11.691-6.075-4.922-12.163-9.85-17.32-15.772-4.122-4.733-6.976-10-7.257-16.53-.368-8.546 2.828-14.966 10.658-18.591 8.273-3.83 15.853-2.34 22.569 3.76.609.554 1.215 1.11 1.739 1.589 1.709.013 2.452-1.247 3.427-2.08 7.546-6.45 17.099-7.091 24.787-1.628 7.29 5.18 9.97 15.304 6.267 24.212-3.164 7.613-9.07 13.02-15.12 18.277-2.259 1.963-4.544 3.896-7.084 6.078zM297.684 405.72c4.206-3.798 8.506-6.959 12.108-11.5 5.234 4.922 10.733 9.267 15.2 14.494 6.154 7.198 2.974 18.177-5.386 17.972-6.498-.159-12.827-.397-19.374.125-5.709.454-9.6-6.688-8.037-12.471.896-3.316 2.837-5.988 5.49-8.62zM43.504 98.42c-4.117 4.645-9.417 7.47-13.302 12.818-5.13-5.845-11.796-9.564-16.04-15.805-3.383-4.976-3.106-10.104.342-13.796 3.333-3.57 7.963-4.104 13.245-1.343 1.4.732 2.41 1.179 4.082.359 6.364-3.12 10.71-2.601 13.982 1.308 3.421 4.087 3.17 9.115-.757 14.68-.382.541-.863 1.013-1.552 1.778zM309.25 481.991c-4.486 6.564-10.573 8.29-17.65 6.876-6.96-1.392-10.208-6.375-11.31-12.949-1.137-6.773-1.281-13.53 1.37-20.066 2.836-6.99 7.995-9.696 17.443-9.159 5.866.334 10.68 4.272 12.136 10.712 1.854 8.2 2.248 16.427-1.989 24.586m-19.917-13.617c.025 3.99.554 7.909 2.011 11.636.914 2.338 2.619 3.846 5.285 3.763 2.805-.088 4.14-2.127 4.746-4.405 2.043-7.674 1.854-15.378-.318-23.016-.734-2.582-2.34-4.675-5.1-4.74-3.11-.074-4.585 2.43-5.357 5.057-1.03 3.5-1.515 7.118-1.267 11.705zM46.465 59.004c-11.1.512-16.21-3.307-18.296-13.722-.98-4.897-1.015-9.937.076-14.842 2.209-9.934 7.46-14.15 17.005-13.954 8.372.171 13.136 4.587 14.727 14.478.895 5.567.852 11.265-.929 16.766-1.946 6.013-5.821 9.95-12.583 11.274m-9.087-26.968c-.01 2.658-.042 5.317-.027 7.974.02 3.345.6 6.61 1.838 9.705.904 2.264 2.39 4 5.156 3.985 2.86-.014 4.261-2.007 4.889-4.258 2.235-8.018 2.087-16.072-.48-24.013-.782-2.419-2.585-3.932-5.189-3.952-2.531-.02-3.85 1.83-4.626 3.923-.687 1.854-1.02 3.84-1.561 6.636z"/></svg>
